images/footer-page/whatsapp.svg

<svg width="24" height="24" viewBox="0 0 24 24" fill="none" xmlns="http://www.w3.org/2000/svg">
<g clip-path="url(#clip0_131_1717)">
<path d="M12.003 0H11.997C5.3805 0 0 5.382 0 12C0 14.625 0.846 17.058 2.2845 19.0335L0.789 23.4915L5.4015 22.017C7.299 23.274 9.5625 24 12.003 24C18.6195 24 24 18.6165 24 12C24 5.3835 18.6195 0 12.003 0ZM18.9855 16.9455C18.696 17.763 17.547 18.441 16.6305 18.639C16.0035 18.7725 15.1845 18.879 12.4275 17.736C8.901 16.275 6.63 12.6915 6.453 12.459C6.2835 12.2265 5.028 10.5615 5.028 8.8395C5.028 7.1175 5.9025 6.279 6.255 5.919C6.5445 5.6235 7.023 5.4885 7.482 5.4885C7.6305 5.4885 7.764 5.496 7.884 5.502C8.2365 5.517 8.4135 5.538 8.646 6.0945C8.9355 6.792 9.6405 8.514 9.7245 8.691C9.81 8.868 9.8955 9.108 9.7755 9.3405C9.663 9.5805 9.564 9.687 9.387 9.891C9.21 10.095 9.042 10.251 8.865 10.47C8.703 10.6605 8.52 10.8645 8.724 11.217C8.928 11.562 9.633 12.7125 10.671 13.6365C12.0105 14.829 13.0965 15.21 13.485 15.372C13.7745 15.492 14.1195 15.4635 14.331 15.2385C14.5995 14.949 14.931 14.469 15.2685 13.9965C15.5085 13.6575 15.8115 13.6155 16.1295 13.7355C16.4535 13.848 18.168 14.6955 18.5205 14.871C18.873 15.048 19.1055 15.132 19.191 15.2805C19.275 15.429 19.275 16.1265 18.9855 16.9455Z" fill="white"/>
</g>
<defs>
<clipPath id="clip0_131_1717">
<rect width="24" height="24" fill="white"/>
</clipPath>
</defs>
</svg>

<svg xmlns="http://www.w3.org/2000/svg" width="24" height="24" fill="none"><g clip-path="url(#a)"><path fill="#fff" d="M12.003 0h-.006C5.38 0 0 5.382 0 12c0 2.625.846 5.058 2.284 7.034L.79 23.49l4.613-1.474A11.896 11.896 0 0 0 12.003 24C18.619 24 24 18.616 24 12c0-6.617-5.38-12-11.997-12Zm6.982 16.945c-.289.818-1.438 1.496-2.354 1.694-.628.134-1.447.24-4.204-.903-3.526-1.461-5.797-5.045-5.974-5.277-.17-.232-1.425-1.897-1.425-3.62 0-1.722.875-2.56 1.227-2.92.29-.295.768-.43 1.227-.43.148 0 .282.007.402.013.352.015.53.036.762.593.29.697.994 2.419 1.079 2.596.085.177.17.417.05.65-.112.24-.211.346-.388.55-.177.204-.345.36-.522.579-.162.19-.345.394-.141.747.204.345.909 1.495 1.947 2.42 1.34 1.192 2.426 1.573 2.814 1.735.29.12.635.091.846-.133.269-.29.6-.77.938-1.243.24-.338.543-.38.86-.26.324.112 2.039.96 2.391 1.135.353.177.585.261.671.41.084.148.084.845-.206 1.664Z"/></g><defs><clipPath id="a"><path fill="#fff" d="M0 0h24v24H0z"/></clipPath></defs></svg>
